output/shapes-clean/Composition/08.svg

<?xml version='1.0' encoding='UTF-8'?>
<svg xmlns="http://www.w3.org/2000/svg" width="200" height="200" viewBox="0 0 200 200">
<rect width="200" height="200" transform="translate(200 8.74228e-06) rotate(90)" fill="#F3F3F3"/>
<path fill-rule="evenodd" clip-rule="evenodd" d="M56.6891 150C58.8006 157.3 61.3602 164.017 64.2928 170L1.31134e-06 170L1.56959e-05 190L78.1794 190C84.7732 196.407 92.1768 200 100 200C127.614 200 150 155.228 150 100C150 44.7715 127.614 7.76377e-06 100 6.55671e-06C92.1768 6.21474e-06 84.7732 3.59343 78.1794 10L8.30516e-06 10L7.43094e-06 30L64.2928 30C61.3603 35.9829 58.8006 42.6998 56.6891 50L6.55671e-06 50L5.68248e-06 70L52.289 70C51.282 76.4124 50.5893 83.1031 50.2469 90L4.80825e-06 90L3.93402e-06 110L50.2469 110C50.5893 116.897 51.282 123.588 52.289 130L3.0598e-06 130L1.74444e-05 150L56.6891 150Z" fill="#121212"/>
<circle cx="99.9998" cy="100" r="33.3333" fill="#F3F3F3"/>
</svg>

<?xml version="1.0" encoding="UTF-8"?>
<svg id="Layer_1" xmlns="http://www.w3.org/2000/svg" version="1.1" viewBox="0 0 200 200">
  <!-- Generator: Adobe Illustrator 30.2.1, SVG Export Plug-In . SVG Version: 2.1.1 Build 1)  -->
  <defs>
    <style>
      .st0 {
        display: none;
        fill: #f3f3f3;
      }

      .st1 {
        fill: #121212;
        fill-rule: evenodd;
      }
    </style>
  </defs>
  <rect class="st0" width="200" height="200"/>
  <path class="st1" d="M100,0c-7.82,0-15.23,3.59-21.82,10H0v20h64.29c-2.93,5.98-5.49,12.7-7.6,20H0v20h52.29c-1.01,6.41-1.7,13.1-2.04,20H0v20h50.25c.34,6.9,1.04,13.59,2.04,20H0v20h56.69c2.11,7.3,4.67,14.02,7.6,20H0v20h78.18c6.59,6.41,14,10,21.82,10,27.61,0,50-44.77,50-100S127.61,0,100,0ZM100,133.33c-18.41,0-33.33-14.92-33.33-33.33s14.92-33.33,33.33-33.33,33.33,14.92,33.33,33.33-14.92,33.33-33.33,33.33Z"/>
</svg>
